logos/astronomer.svg

<?xml version="1.0" encoding="UTF-8"?>
<svg width="512px" height="53px" viewBox="0 0 512 53" version="1.1" xmlns="http://www.w3.org/2000/svg" preserveAspectRatio="xMidYMid">
    <title>Astronomer</title>
    <defs>
        <linearGradient x1="-0.799%" y1="49.487%" x2="100.073%" y2="50.542%" id="astronomer-linearGradient">
            <stop stop-color="#3F2870" offset="0%"></stop>
            <stop stop-color="#9377D1" offset="100%"></stop>
        </linearGradient>
    </defs>
    <g>
        <path d="M66.0225774,1.93146697 C63.3441562,3.2193505 61.2951421,4.94512878 59.8711898,7.10665174 C58.4465129,9.26960806 57.7352611,11.6382531 57.7352611,14.2133034 C57.7352611,17.5186563 58.5080776,20.1668084 60.0551592,22.1584771 C61.6029651,24.151579 63.4310708,25.6207839 65.543098,26.5675252 C67.6536767,27.5156998 70.4537784,28.4997088 73.9412307,29.5202688 C76.4936257,30.2011199 78.4948366,30.8318029 79.9448635,31.4159014 C81.3927174,31.9985667 82.5957618,32.7768869 83.5539963,33.7479955 C84.5115066,34.7198208 84.9902618,35.9840538 84.9902618,37.5378276 C84.9902618,39.6771333 84.0689659,41.4867638 82.2278228,42.968869 C80.3866798,44.4516909 77.8690508,45.1913102 74.6771085,45.1913102 C69.6193974,45.1913102 65.2968397,43.3214781 61.713057,39.5789473 L56.2620568,44.8279507 C58.0300467,46.9170885 60.4969755,48.715252 63.6650163,50.2210079 C66.8323327,51.7281971 70.5030301,52.48 74.6771085,52.48 C78.3608431,52.48 81.6020371,51.7998656 84.4006903,50.4395969 C87.2000678,49.0800448 89.3475853,47.2582307 90.8461395,44.9727212 C92.3439694,42.6893617 93.0936087,40.2103471 93.0936087,37.5378276 C93.0936087,34.2339082 92.3200678,31.5857559 90.7729862,29.5933706 C89.2259046,27.6017021 87.3963502,26.1310638 85.2857716,25.1836058 C83.1730203,24.2361478 80.3736426,23.2521389 76.887639,22.231579 C74.3330711,21.5514446 72.3318602,20.9193281 70.8840063,20.3366629 C69.4347036,19.753281 68.2323836,18.9756774 67.2748733,18.0038522 C66.3166388,17.0327436 65.8378838,15.7699441 65.8378838,14.2133034 C65.8378838,12.2703695 66.685302,10.6305935 68.3794144,9.29397536 C70.0735267,7.95735722 72.4180507,7.28940649 75.4144348,7.28940649 C77.624241,7.28940649 79.6493535,7.73948488 81.4912209,8.6374916 C83.3330881,9.53764837 84.8917583,10.5940425 86.1686802,11.8088242 L91.6196803,6.55982083 C89.9494696,4.81110862 87.7034488,3.28026876 84.8794455,1.96801792 C82.055442,0.656483763 78.9004385,0 75.4144348,0 C71.8284792,0 68.6981016,0.644300109 66.0225774,1.93146697 L66.0225774,1.93146697 Z M322.402106,7.55243002 C324.664785,7.91507279 326.805783,8.65970885 328.81641,9.80353864 C331.763542,11.4798656 334.083441,13.7768421 335.777553,16.6923181 C337.471665,19.6077939 338.319084,22.7905935 338.319084,26.2407167 C338.319084,29.6908398 337.471665,32.8736394 335.777553,35.7891154 C334.083441,38.7045912 331.763542,41.0001344 328.81641,42.6764613 C325.870002,44.353505 322.653434,45.1913102 319.166706,45.1913102 C315.679252,45.1913102 312.463409,44.353505 309.517001,42.6764613 C309.156305,42.4714894 308.805748,42.2564837 308.46316,42.032878 L305.596424,49.1259127 C309.697349,51.3569541 314.219811,52.48 319.166706,52.48 C324.224416,52.48 328.841036,51.3146697 333.015114,48.9818589 C337.188468,46.6490482 340.466601,43.4784323 342.849512,39.4692945 C345.23025,35.4608735 346.421706,31.0511086 346.421706,26.2407167 C346.421706,21.4296081 345.23025,17.0198432 342.849512,13.0107055 C340.466601,9.00228443 337.188468,5.83095185 333.015114,3.49885778 C330.567017,2.13070548 327.961024,1.17536394 325.20945,0.609899213 L322.402106,7.55243002 Z M216.179306,7.55243002 C218.441987,7.91507279 220.581536,8.65970885 222.592887,9.80353864 C225.540019,11.4798656 227.860643,13.7768421 229.554755,16.6923181 C231.248867,19.6077939 232.095561,22.7905935 232.095561,26.2407167 C232.095561,29.6908398 231.248867,32.8736394 229.554755,35.7891154 C227.860643,38.7045912 225.540019,41.0001344 222.592887,42.6764613 C219.646479,44.353505 216.429187,45.1913102 212.943183,45.1913102 C209.455731,45.1913102 206.239887,44.353505 203.293478,42.6764613 C202.932782,42.4714894 202.582227,42.2564837 202.240362,42.032878 L199.373626,49.1259127 C203.474551,51.3569541 207.996288,52.48 212.943183,52.48 C218.000893,52.48 222.617513,51.3146697 226.791592,48.9818589 C230.964946,46.6490482 234.243078,43.4784323 236.625989,39.4692945 C239.007452,35.4608735 240.198908,31.0511086 240.198908,26.2407167 C240.198908,21.4296081 239.007452,17.0198432 236.625989,13.0107055 C234.243078,9.00228443 230.964946,5.83095185 226.791592,3.49885778 C224.343494,2.13070548 221.738226,1.17536394 218.985203,0.609899213 L216.179306,7.55243002 Z M471.853377,0.728868979 L471.853377,51.7518477 L479.956723,51.7518477 L479.956723,32.8005375 L492.111744,32.8005375 L502.792113,51.7518477 L512,51.7518477 L500.361398,31.4882867 C503.356333,30.2247704 505.73852,28.2811199 507.507235,25.6573348 C509.2745,23.0328332 510.158132,20.0700559 510.158132,16.7639866 C510.158132,13.7517581 509.433843,11.0319373 507.985265,8.60094065 C506.536687,6.17209407 504.523163,4.25281075 501.944694,2.8430907 C499.367672,1.43408735 496.45748,0.728868979 493.215561,0.728868979 L471.853377,0.728868979 Z M479.956723,8.0175588 L493.215561,8.0175588 C495.818656,8.0175588 497.942272,8.83243002 499.587857,10.4600224 C501.231994,12.0883315 502.05551,14.1896529 502.05551,16.7639866 C502.05551,19.2917357 501.231994,21.3815901 499.587857,23.0328332 C497.942272,24.6855095 495.818656,25.511131 493.215561,25.511131 L479.956723,25.511131 L479.956723,8.0175588 Z M422.719049,0.728868979 L422.719049,51.7518477 L459.91854,51.7518477 L459.91854,44.4624412 L430.821672,44.4624412 L430.821672,28.9368869 L453.289121,28.9368869 L453.289121,21.6481971 L430.821672,21.6481971 L430.821672,8.0175588 L459.182662,8.0175588 L459.182662,0.728868979 L422.719049,0.728868979 Z M402.756916,0.728868979 L383.309752,25.4380291 L383.161998,25.4380291 L363.715558,0.728868979 L356.27566,0.728868979 L356.27566,51.7518477 L364.378282,51.7518477 L364.378282,14.4318925 L364.673069,14.4318925 L383.161998,37.9026204 L401.651651,14.4318925 L401.946437,14.4318925 L401.946437,51.7518477 L410.049783,51.7518477 L410.049783,0.728868979 L402.756916,0.728868979 Z M286.560657,0.728868979 L286.560657,37.9757222 L286.339023,37.9757222 L258.199666,0.728868979 L250.833646,0.728868979 L250.833646,51.7518477 L258.936269,51.7518477 L258.936269,14.5049944 L259.157901,14.5049944 L287.297258,51.7518477 L294.663279,51.7518477 L294.663279,0.728868979 L286.560657,0.728868979 Z M151.375708,0.728868979 L151.375708,51.7518477 L159.479055,51.7518477 L159.479055,32.8005375 L171.633352,32.8005375 L182.315168,51.7518477 L191.522331,51.7518477 L179.883729,31.4882867 C182.87794,30.2247704 185.260851,28.2811199 187.028841,25.6573348 C188.796108,23.0328332 189.680463,20.0700559 189.680463,16.7639866 C189.680463,13.7517581 188.956175,11.0319373 187.507597,8.60094065 C186.058294,6.17209407 184.045495,4.25281075 181.467025,2.8430907 C178.888556,1.43408735 175.979086,0.728868979 172.737892,0.728868979 L151.375708,0.728868979 Z M159.479055,8.0175588 L172.737892,8.0175588 C175.340987,8.0175588 177.463878,8.83243002 179.109464,10.4600224 C180.754324,12.0883315 181.577841,14.1896529 181.577841,16.7639866 C181.577841,19.2917357 180.754324,21.3815901 179.109464,23.0328332 C177.463878,24.6855095 175.340987,25.511131 172.737892,25.511131 L159.479055,25.511131 L159.479055,8.0175588 Z M100.87175,0.728868979 L100.87175,8.0175588 L116.341118,8.0175588 L116.341118,51.7518477 L124.444465,51.7518477 L124.444465,8.0175588 L139.913108,8.0175588 L139.913108,0.728868979 L100.87175,0.728868979 Z M20.5987834,0.795520717 L0,51.7518477 L8.31339086,51.7518477 L13.4630867,38.6486898 L36.2035932,38.6486898 L41.4177508,51.7518477 L50.0252029,51.7518477 L36.724357,18.8488242 L28.4022747,18.8488242 L33.3259923,31.3693169 L16.4051492,31.3693169 L28.4269006,0.795520717 L20.5987834,0.795520717 Z" fill="url(#astronomer-linearGradient)"></path>
    </g>
</svg>

<svg preserveAspectRatio="xMidYMid" viewBox="0 0 512 53" xmlns="http://www.w3.org/2000/svg">
  <defs>
    <linearGradient id="astronomer_svg__a" x1="-.799%" x2="100.073%" y1="49.487%" y2="50.542%">
      <stop offset="0%" stop-color="#3F2870"/>
      <stop offset="100%" stop-color="#9377D1"/>
    </linearGradient>
  </defs>
  <path fill="url(#astronomer_svg__a)" d="M66.023 1.931c-2.679 1.288-4.728 3.014-6.152 5.176-1.424 2.163-2.136 4.531-2.136 7.106 0 3.306.773 5.954 2.32 7.945 1.548 1.994 3.376 3.463 5.488 4.41 2.11.948 4.91 1.932 8.398 2.952 2.553.681 4.554 1.312 6.004 1.896 1.448.583 2.65 1.36 3.609 2.332.958.972 1.436 2.236 1.436 3.79 0 2.14-.921 3.949-2.762 5.43-1.841 1.484-4.359 2.223-7.55 2.223-5.059 0-9.381-1.87-12.965-5.612l-5.45 5.249c1.767 2.09 4.234 3.887 7.402 5.393 3.167 1.507 6.838 2.259 11.012 2.259 3.684 0 6.925-.68 9.724-2.04 2.8-1.36 4.947-3.182 6.445-5.467 1.498-2.284 2.248-4.763 2.248-7.435 0-3.304-.774-5.952-2.321-7.945-1.547-1.991-3.377-3.462-5.487-4.41-2.113-.947-4.912-1.93-8.398-2.951-2.555-.68-4.556-1.313-6.004-1.895-1.45-.584-2.652-1.361-3.61-2.333-.957-.971-1.436-2.234-1.436-3.79 0-1.944.847-3.583 2.541-4.92 1.695-1.337 4.04-2.005 7.035-2.005 2.21 0 4.235.45 6.077 1.348 1.842.9 3.4 1.957 4.678 3.172l5.45-5.25c-1.67-1.748-3.916-3.279-6.74-4.591C82.055.656 78.9 0 75.414 0c-3.586 0-6.716.644-9.391 1.931Zm256.38 5.621a18.925 18.925 0 0 1 6.413 2.252c2.948 1.676 5.267 3.973 6.962 6.888 1.694 2.916 2.541 6.099 2.541 9.549 0 3.45-.847 6.633-2.541 9.548-1.695 2.916-4.014 5.211-6.962 6.887-2.946 1.678-6.163 2.515-9.65 2.515s-6.703-.837-9.649-2.515c-.36-.205-.711-.42-1.054-.643l-2.867 7.093c4.101 2.231 8.624 3.354 13.57 3.354 5.058 0 9.675-1.165 13.85-3.498 4.172-2.333 7.45-5.504 9.834-9.513 2.38-4.008 3.572-8.418 3.572-13.228 0-4.811-1.192-9.221-3.572-13.23-2.383-4.009-5.662-7.18-9.835-9.512a27.07 27.07 0 0 0-7.806-2.89l-2.807 6.943Zm-106.224 0a18.927 18.927 0 0 1 6.414 2.252c2.947 1.676 5.268 3.973 6.962 6.888 1.694 2.916 2.54 6.099 2.54 9.549 0 3.45-.846 6.633-2.54 9.548-1.694 2.916-4.015 5.211-6.962 6.887-2.947 1.678-6.164 2.515-9.65 2.515-3.487 0-6.703-.837-9.65-2.515-.36-.205-.71-.42-1.053-.643l-2.866 7.093c4.1 2.231 8.622 3.354 13.57 3.354 5.057 0 9.674-1.165 13.848-3.498 4.173-2.333 7.451-5.504 9.834-9.513 2.381-4.008 3.573-8.418 3.573-13.228 0-4.811-1.192-9.221-3.573-13.23-2.383-4.009-5.661-7.18-9.834-9.512a27.059 27.059 0 0 0-7.807-2.89l-2.806 6.943ZM471.853.73v51.023h8.104V32.8h12.155l10.68 18.95H512l-11.639-20.263c2.995-1.263 5.378-3.207 7.146-5.83 1.767-2.625 2.651-5.588 2.651-8.894 0-3.012-.724-5.732-2.173-8.163-1.448-2.429-3.462-4.348-6.04-5.758-2.577-1.409-5.488-2.114-8.73-2.114h-21.362Zm8.104 7.289h13.259c2.603 0 4.726.814 6.372 2.442 1.644 1.628 2.468 3.73 2.468 6.304 0 2.528-.824 4.618-2.468 6.269-1.646 1.653-3.77 2.478-6.372 2.478h-13.26V8.018ZM422.719.728v51.024h37.2v-7.29h-29.097V28.937h22.467v-7.289h-22.467V8.018h28.36V.728H422.72Zm-19.962 0-19.447 24.71h-.148L363.716.728h-7.44v51.024h8.102v-37.32h.295l18.489 23.47 18.49-23.47h.294v37.32h8.104V.729h-7.293Zm-116.196 0v37.248h-.222L258.199.729h-7.365v51.023h8.102V14.505h.222l28.14 37.247h7.365V.729h-8.102Zm-135.185 0v51.024h8.103V32.8h12.154l10.682 18.95h9.207l-11.638-20.263c2.994-1.263 5.377-3.207 7.145-5.83 1.767-2.625 2.651-5.588 2.651-8.894 0-3.012-.724-5.732-2.172-8.163-1.45-2.429-3.463-4.348-6.041-5.758-2.578-1.409-5.488-2.114-8.73-2.114h-21.361Zm8.103 7.29h13.259c2.603 0 4.726.814 6.371 2.442 1.645 1.628 2.469 3.73 2.469 6.304 0 2.528-.824 4.618-2.469 6.269-1.645 1.653-3.768 2.478-6.371 2.478h-13.259V8.018ZM100.872.728v7.29h15.47v43.734h8.102V8.018h15.47V.728h-39.042ZM20.599.797 0 51.752h8.313l5.15-13.103h22.74l5.215 13.103h8.607l-13.3-32.903h-8.323l4.924 12.52h-16.92L28.425.796H20.6Z"/>
</svg>
